X:500
T: Pancha tongxingzheng
N: C1919
O: China,Hebei Shenxian
S: IV, 37]
R: Xiaodiao, Tiaobin diao]
M: 2/4
L: 1/16
K: C
c2c2c2E2 | G6A2 | c3de2d2 | c8 |
c3de4 | d2edc2A2 | A3GE2DE | G8 |
d2edc2c2 | d2edc2c2 | E2G2A2c2 | G6G2 |
c3AG2c2 | A2G2G2D2 | E2G2E2D2 | C6D2 |
E2G2D2E2 | G8 |
c3AG2c2 | A2G2G2D2 | E2G2E2D2 | C8

@@@ Tune index: 7055
